X:1
T:The Grey Old Lady of Raasay  "(Cailleach Liath Ratharsar)"
M:C
L:1/8
Q:80
C:trad. arr. M. Grey
S:Reel
K:HP
|: e | \
{gAGAG}A2{gf}g2ae{A}ef | \
{gf}g2ag{a}fd{G}de | \
{gAGAG}A2{gf}g2ae{A}eg |
{a}fd{g}ec{g}A{d}A{e}A:| [ | \
a | \
c3/2A/2{gAGAG}A2{g}ec{G}ce | \
{g}f3/2A/2{gAGAG}A2{g}ec{G}ca |
c3/2A/2{gAGAG}A2{g}ec{G}ce | \
{g}fA{g}ec{g}B{d}B{e}Bac3/2A/2{gAGAG}A2{g}ec{G}ce | \
{g}f3/2A/2{gAGAG}A2{g}ec{G}ca |
c/2{d}A3/2{Gdc}d2{g}ec{G}ce | \
{g}fA{g}ec{g}B{d}B{e}B|]
